logos/kandel_lab.svg

<?xml version="1.0" encoding="UTF-8"?>
<!DOCTYPE svg PUBLIC "-//W3C//DTD SVG 1.1//EN" "http://www.w3.org/Graphics/SVG/1.1/DTD/svg11.dtd">
<svg xmlns="http://www.w3.org/2000/svg" version="1.1" width="534px" height="188px" style="shape-rendering:geometricPrecision; text-rendering:geometricPrecision; image-rendering:optimizeQuality; fill-rule:evenodd; clip-rule:evenodd" xmlns:xlink="http://www.w3.org/1999/xlink">
<g><path style="opacity:1" fill="#fefefe" d="M -0.5,-0.5 C 177.5,-0.5 355.5,-0.5 533.5,-0.5C 533.5,62.1667 533.5,124.833 533.5,187.5C 355.5,187.5 177.5,187.5 -0.5,187.5C -0.5,124.833 -0.5,62.1667 -0.5,-0.5 Z"/></g>
<g><path style="opacity:1" fill="#383a3d" d="M 227.5,60.5 C 231.167,60.5 234.833,60.5 238.5,60.5C 238.5,80.5 238.5,100.5 238.5,120.5C 234.833,120.5 231.167,120.5 227.5,120.5C 227.657,119.127 227.49,117.793 227,116.5C 223.111,119.739 218.611,121.073 213.5,120.5C 199.709,119.708 192.709,112.375 192.5,98.5C 194.051,82.7853 202.718,75.6186 218.5,77C 221.656,77.9372 224.489,79.4372 227,81.5C 227.5,74.5079 227.666,67.5079 227.5,60.5 Z"/></g>
<g><path style="opacity:1" fill="#393b3e" d="M 300.5,60.5 C 304.167,60.5 307.833,60.5 311.5,60.5C 311.5,80.5 311.5,100.5 311.5,120.5C 307.833,120.5 304.167,120.5 300.5,120.5C 300.5,100.5 300.5,80.5 300.5,60.5 Z"/></g>
<g><path style="opacity:1" fill="#383a3d" d="M 442.5,60.5 C 446.167,60.5 449.833,60.5 453.5,60.5C 453.334,67.5079 453.5,74.5079 454,81.5C 465.432,73.9043 475.765,75.2377 485,85.5C 488.872,92.8324 489.539,100.499 487,108.5C 482.855,116.992 476.022,120.992 466.5,120.5C 461.095,121.212 456.595,119.545 453,115.5C 452.506,117.134 452.34,118.801 452.5,120.5C 449.167,120.5 445.833,120.5 442.5,120.5C 442.5,100.5 442.5,80.5 442.5,60.5 Z"/></g>
<g><path style="opacity:1" fill="#656668" d="M 46.5,64.5 C 43.1667,64.5 39.8333,64.5 36.5,64.5C 36.5,83.1667 36.5,101.833 36.5,120.5C 35.503,101.674 35.1697,82.674 35.5,63.5C 39.3714,63.185 43.0381,63.5184 46.5,64.5 Z"/></g>
<g><path style="opacity:1" fill="#35373a" d="M 36.5,120.5 C 36.5,101.833 36.5,83.1667 36.5,64.5C 39.8333,64.5 43.1667,64.5 46.5,64.5C 46.3336,73.5062 46.5002,82.5062 47,91.5C 56.1973,82.637 65.0306,73.4703 73.5,64C 77.5411,63.1735 81.5411,63.3401 85.5,64.5C 78.3389,72.8275 71.0055,80.9941 63.5,89C 71.1035,99.6081 79.1035,109.941 87.5,120C 83.1667,120.667 78.8333,120.667 74.5,120C 68.3543,112.22 61.8543,104.72 55,97.5C 52.3333,100.167 49.6667,102.833 47,105.5C 46.5007,110.489 46.3341,115.489 46.5,120.5C 43.1667,120.5 39.8333,120.5 36.5,120.5 Z"/></g>
<g><path style="opacity:1" fill="#656668" d="M 357.5,63.5 C 357.5,63.8333 357.5,64.1667 357.5,64.5C 354.167,64.5 350.833,64.5 347.5,64.5C 347.5,83.1667 347.5,101.833 347.5,120.5C 346.503,101.674 346.17,82.674 346.5,63.5C 350.167,63.5 353.833,63.5 357.5,63.5 Z"/></g>
<g><path style="opacity:1" fill="#323537" d="M 357.5,64.5 C 357.5,80.1667 357.5,95.8333 357.5,111.5C 367.167,111.5 376.833,111.5 386.5,111.5C 386.5,114.5 386.5,117.5 386.5,120.5C 373.5,120.5 360.5,120.5 347.5,120.5C 347.5,101.833 347.5,83.1667 347.5,64.5C 350.833,64.5 354.167,64.5 357.5,64.5 Z"/></g>
<g><path style="opacity:1" fill="#393b3e" d="M 101.5,95.5 C 106.833,95.5 112.167,95.5 117.5,95.5C 117.784,93.5853 117.451,91.9187 116.5,90.5C 114.146,87.3169 110.979,85.6502 107,85.5C 102.487,85.7263 98.3207,87.0597 94.5,89.5C 91.5903,87.21 90.5903,84.3767 91.5,81C 101.326,75.459 111.326,75.1257 121.5,80C 124.807,82.7783 126.974,86.2783 128,90.5C 128.5,100.494 128.666,110.494 128.5,120.5C 125.167,120.5 121.833,120.5 118.5,120.5C 118.762,119.022 118.429,117.689 117.5,116.5C 113.841,119.83 109.508,121.163 104.5,120.5C 90.7358,119.956 86.2358,113.289 91,100.5C 93.8046,97.3475 97.3046,95.6808 101.5,95.5 Z"/></g>
<g><path style="opacity:1" fill="#393b3d" d="M 159.5,76.5 C 170.897,74.7716 178.731,79.1049 183,89.5C 183.5,99.828 183.666,110.161 183.5,120.5C 179.833,120.5 176.167,120.5 172.5,120.5C 172.666,110.828 172.5,101.161 172,91.5C 168.345,86.7255 163.512,85.2255 157.5,87C 155.083,88.6626 153.25,90.8293 152,93.5C 151.5,102.494 151.334,111.494 151.5,120.5C 147.833,120.5 144.167,120.5 140.5,120.5C 140.5,106.167 140.5,91.8333 140.5,77.5C 143.833,77.5 147.167,77.5 150.5,77.5C 150.238,78.9778 150.571,80.3112 151.5,81.5C 154.227,79.7411 156.894,78.0744 159.5,76.5 Z"/></g>
<g><path style="opacity:1" fill="#37393c" d="M 264.5,76.5 C 282.731,75.7324 291.731,84.3991 291.5,102.5C 280.48,102.168 269.48,102.501 258.5,103.5C 262.254,111.066 268.254,113.566 276.5,111C 278.925,109.829 281.258,108.829 283.5,108C 290.328,112.739 289.661,116.405 281.5,119C 266.198,124.254 255.032,119.754 248,105.5C 245.265,90.9547 250.765,81.2881 264.5,76.5 Z"/></g>
<g><path style="opacity:1" fill="#393b3e" d="M 403.5,95.5 C 408.833,95.5 414.167,95.5 419.5,95.5C 419.784,93.5853 419.451,91.9187 418.5,90.5C 416.146,87.3169 412.979,85.6502 409,85.5C 404.487,85.7263 400.321,87.0597 396.5,89.5C 393.59,87.21 392.59,84.3767 393.5,81C 403.326,75.459 413.326,75.1257 423.5,80C 426.807,82.7783 428.974,86.2783 430,90.5C 430.5,100.494 430.666,110.494 430.5,120.5C 427.167,120.5 423.833,120.5 420.5,120.5C 420.762,119.022 420.429,117.689 419.5,116.5C 415.841,119.83 411.508,121.163 406.5,120.5C 392.736,119.956 388.236,113.289 393,100.5C 395.805,97.3475 399.305,95.6808 403.5,95.5 Z"/></g>
<g><path style="opacity:1" fill="#f9f9f9" d="M 280.5,93.5 C 273.352,94.4916 266.019,94.825 258.5,94.5C 262.258,85.2305 268.591,83.0638 277.5,88C 278.758,89.7409 279.758,91.5742 280.5,93.5 Z"/></g>
<g><path style="opacity:1" fill="#fbfbfb" d="M 212.5,85.5 C 225.533,86.3709 230.033,93.0376 226,105.5C 222.268,111.046 217.101,112.879 210.5,111C 203.862,106.983 201.696,101.15 204,93.5C 206.098,89.8972 208.932,87.2305 212.5,85.5 Z"/></g>
<g><path style="opacity:1" fill="#fafafb" d="M 462.5,85.5 C 476.029,86.549 480.529,93.549 476,106.5C 471.053,111.685 465.219,112.851 458.5,110C 453.979,105.377 452.479,99.8767 454,93.5C 456.074,89.9231 458.907,87.2565 462.5,85.5 Z"/></g>
<g><path style="opacity:1" fill="#9a9b9c" d="M 116.5,90.5 C 117.451,91.9187 117.784,93.5853 117.5,95.5C 112.167,95.5 106.833,95.5 101.5,95.5C 106.305,94.5128 111.305,94.1795 116.5,94.5C 116.5,93.1667 116.5,91.8333 116.5,90.5 Z"/></g>
<g><path style="opacity:1" fill="#a9a9aa" d="M 280.5,93.5 C 281.043,93.56 281.376,93.8933 281.5,94.5C 273.677,95.8199 266.01,95.8199 258.5,94.5C 266.019,94.825 273.352,94.4916 280.5,93.5 Z"/></g>
<g><path style="opacity:1" fill="#9a9b9c" d="M 418.5,90.5 C 419.451,91.9187 419.784,93.5853 419.5,95.5C 414.167,95.5 408.833,95.5 403.5,95.5C 408.305,94.5128 413.305,94.1795 418.5,94.5C 418.5,93.1667 418.5,91.8333 418.5,90.5 Z"/></g>
<g><path style="opacity:1" fill="#fafafa" d="M 102.5,102.5 C 107.5,102.5 112.5,102.5 117.5,102.5C 117.749,109.381 114.415,112.714 107.5,112.5C 99.024,112.38 97.3573,109.046 102.5,102.5 Z"/></g>
<g><path style="opacity:1" fill="#fafafa" d="M 404.5,102.5 C 409.5,102.5 414.5,102.5 419.5,102.5C 419.749,109.381 416.415,112.714 409.5,112.5C 401.024,112.38 399.357,109.046 404.5,102.5 Z"/></g>
<g><path style="opacity:1" fill="#bbbbbc" d="M 357.5,63.5 C 358.496,78.9911 358.83,94.6578 358.5,110.5C 368.015,110.173 377.348,110.506 386.5,111.5C 376.833,111.5 367.167,111.5 357.5,111.5C 357.5,95.8333 357.5,80.1667 357.5,64.5C 357.5,64.1667 357.5,63.8333 357.5,63.5 Z"/></g>
</svg>

<svg xmlns="http://www.w3.org/2000/svg" width="534" height="188" style="shape-rendering:geometricPrecision;text-rendering:geometricPrecision;image-rendering:optimizeQuality;fill-rule:evenodd;clip-rule:evenodd"><path style="opacity:1" fill="#fefefe" d="M-.5-.5h534v188H-.5V-.5z"/><path style="opacity:1" fill="#383a3d" d="M227.5 60.5h11v60h-11a8.43 8.43 0 0 0-.5-4c-3.889 3.239-8.389 4.573-13.5 4-13.791-.792-20.791-8.125-21-22 1.551-15.715 10.218-22.881 26-21.5a24.023 24.023 0 0 1 8.5 4.5c.5-6.992.666-13.992.5-21z"/><path style="opacity:1" fill="#393b3e" d="M300.5 60.5h11v60h-11v-60z"/><path style="opacity:1" fill="#383a3d" d="M442.5 60.5h11c-.166 7.008 0 14.008.5 21 11.432-7.596 21.765-6.262 31 4 3.872 7.332 4.539 14.999 2 23-4.145 8.492-10.978 12.492-20.5 12-5.405.712-9.905-.955-13.5-5a12.93 12.93 0 0 0-.5 5h-10v-60z"/><path style="opacity:1" fill="#656668" d="M46.5 64.5h-10v56a812.816 812.816 0 0 1-1-57c3.871-.315 7.538.018 11 1z"/><path style="opacity:1" fill="#35373a" d="M36.5 120.5v-56h10c-.166 9.006 0 18.006.5 27A514.341 514.341 0 0 0 73.5 64a24.558 24.558 0 0 1 12 .5 767.233 767.233 0 0 1-22 24.5 532.094 532.094 0 0 0 24 31 42.479 42.479 0 0 1-13 0A327.686 327.686 0 0 0 55 97.5l-8 8c-.5 4.989-.666 9.989-.5 15h-10z"/><path style="opacity:1" fill="#656668" d="M357.5 63.5v1h-10v56a813 813 0 0 1-1-57h11z"/><path style="opacity:1" fill="#323537" d="M357.5 64.5v47h29v9h-39v-56h10z"/><path style="opacity:1" fill="#393b3e" d="M101.5 95.5h16c.284-1.915-.049-3.581-1-5-2.354-3.183-5.521-4.85-9.5-5-4.513.226-8.68 1.56-12.5 4-2.91-2.29-3.91-5.123-3-8.5 9.826-5.541 19.826-5.874 30-1 3.307 2.778 5.474 6.278 6.5 10.5.5 9.994.666 19.994.5 30h-10c.262-1.478-.071-2.811-1-4-3.659 3.33-7.992 4.663-13 4-13.764-.544-18.264-7.211-13.5-20 2.805-3.153 6.305-4.82 10.5-5z"/><path style="opacity:1" fill="#393b3d" d="M159.5 76.5c11.397-1.728 19.231 2.605 23.5 13 .5 10.328.666 20.661.5 31h-11c.166-9.672 0-19.339-.5-29-3.655-4.775-8.488-6.275-14.5-4.5-2.417 1.663-4.25 3.83-5.5 6.5-.5 8.994-.666 17.994-.5 27h-11v-43h10c-.262 1.478.071 2.811 1 4a321.262 321.262 0 0 1 8-5z"/><path style="opacity:1" fill="#37393c" d="M264.5 76.5c18.231-.768 27.231 7.9 27 26-11.02-.332-22.02.001-33 1 3.754 7.566 9.754 10.066 18 7.5a79.778 79.778 0 0 1 7-3c6.828 4.739 6.161 8.405-2 11-15.302 5.254-26.468.754-33.5-13.5-2.735-14.545 2.765-24.212 16.5-29z"/><path style="opacity:1" fill="#393b3e" d="M403.5 95.5h16c.284-1.915-.049-3.581-1-5-2.354-3.183-5.521-4.85-9.5-5-4.513.226-8.679 1.56-12.5 4-2.91-2.29-3.91-5.123-3-8.5 9.826-5.541 19.826-5.874 30-1 3.307 2.778 5.474 6.278 6.5 10.5.5 9.994.666 19.994.5 30h-10c.262-1.478-.071-2.811-1-4-3.659 3.33-7.992 4.663-13 4-13.764-.544-18.264-7.211-13.5-20 2.805-3.153 6.305-4.82 10.5-5z"/><path style="opacity:1" fill="#f9f9f9" d="M280.5 93.5c-7.148.992-14.481 1.325-22 1 3.758-9.27 10.091-11.436 19-6.5a24.259 24.259 0 0 1 3 5.5z"/><path style="opacity:1" fill="#fbfbfb" d="M212.5 85.5c13.033.87 17.533 7.538 13.5 20-3.732 5.546-8.899 7.379-15.5 5.5-6.638-4.017-8.804-9.85-6.5-17.5 2.098-3.603 4.932-6.27 8.5-8z"/><path style="opacity:1" fill="#fafafb" d="M462.5 85.5c13.529 1.049 18.029 8.049 13.5 21-4.947 5.185-10.781 6.351-17.5 3.5-4.521-4.623-6.021-10.123-4.5-16.5 2.074-3.577 4.907-6.243 8.5-8z"/><path style="opacity:1" fill="#9a9b9c" d="M116.5 90.5c.951 1.419 1.284 3.085 1 5h-16c4.805-.987 9.805-1.32 15-1v-4z"/><path style="opacity:1" fill="#a9a9aa" d="M280.5 93.5c.543.06.876.393 1 1-7.823 1.32-15.49 1.32-23 0 7.519.325 14.852-.008 22-1z"/><path style="opacity:1" fill="#9a9b9c" d="M418.5 90.5c.951 1.419 1.284 3.085 1 5h-16c4.805-.987 9.805-1.32 15-1v-4z"/><path style="opacity:1" fill="#fafafa" d="M102.5 102.5h15c.249 6.881-3.085 10.214-10 10-8.476-.12-10.143-3.454-5-10zM404.5 102.5h15c.249 6.881-3.085 10.214-10 10-8.476-.12-10.143-3.454-5-10z"/><path style="opacity:1" fill="#bbbbbc" d="M357.5 63.5a552.804 552.804 0 0 1 1 47c9.515-.327 18.848.006 28 1h-29v-48z"/></svg>
